exampleSite/static/images/illustrations/leaf-cyan-2.svg

<svg width="161" height="120" viewBox="0 0 161 120" fill="none" xmlns="http://www.w3.org/2000/svg">
<g clip-path="url(#clip0)">
<path d="M161 92.206C161 92.206 159.345 67.103 156.673 56.553C154 46.003 149.085 50.249 148.05 53.036C147.015 55.822 142.29 58.841 136.308 36.852C130.327 14.862 121.29 11.558 114.035 23.252C106.78 34.945 99.5352 28.799 93.1622 16.134C86.1552 2.20801 67.2852 -9.00999 69.6562 9.72601C72.2662 30.355 66.8182 27.386 53.5822 19.506C40.3452 11.626 35.8882 8.63401 30.1602 13.083C24.4332 17.532 30.1602 20.455 32.9602 25.666C35.7602 30.878 31.6882 31.513 25.0702 31.513C18.4502 31.513 12.8502 30.623 10.6872 36.089C8.52316 41.555 21.4502 43.132 6.36016 48.164C-5.29184 52.049 1.33216 60.557 8.26916 61.701C15.2052 62.845 15.0792 66.976 13.0422 70.408C11.0052 73.839 8.20516 79.877 25.5782 80.068C42.9522 80.258 43.0782 84.262 35.6972 88.711C28.3152 93.159 34.5512 101.866 48.9342 101.167C63.3162 100.467 91.8462 90.784 81.9472 106.063C72.0472 121.343 89.8822 123.553 102.556 114.512C115.897 104.994 122.206 105.73 119.956 112.65C117.706 119.57 121.276 120.354 128.656 117.657C136.036 114.961 139.276 106.333 145.755 105.793C152.235 105.254 155.613 108.775 157.413 107.157C159.531 104.713 132.49 85.66 94.0532 70.407C55.6162 55.155 23.0332 53.503 14.2512 53.503C5.46916 53.503 4.70516 53.725 4.70516 53.725C4.70516 53.725 29.7782 49.816 65.4152 56.425C101.054 63.036 161 92.207 161 92.207V92.206Z" fill="#C5D30A"/>
</g>
<defs>
<clipPath id="clip0">
<path d="M0 0H161V120H0V0Z" fill="white"/>
</clipPath>
</defs>
</svg>

<svg xmlns="http://www.w3.org/2000/svg" width="161" height="120"><path d="M161 92.206s-1.655-25.103-4.327-35.653c-2.673-10.55-7.588-6.304-8.623-3.517-1.035 2.786-5.76 5.805-11.742-16.184-5.981-21.99-15.018-25.294-22.273-13.6-7.255 11.693-14.5 5.547-20.873-7.118C86.155 2.208 67.285-9.01 69.656 9.726c2.61 20.629-2.838 17.66-16.074 9.78-13.237-7.88-17.694-10.872-23.422-6.423-5.727 4.449 0 7.372 2.8 12.583 2.8 5.212-1.272 5.847-7.89 5.847-6.62 0-12.22-.89-14.383 4.576-2.164 5.466 10.763 7.043-4.327 12.075-11.652 3.885-5.028 12.393 1.909 13.537 6.936 1.144 6.81 5.275 4.773 8.707-2.037 3.431-4.837 9.469 12.536 9.66 17.374.19 17.5 4.194 10.119 8.643-7.382 4.448-1.146 13.155 13.237 12.456 14.382-.7 42.912-10.383 33.013 4.896-9.9 15.28 7.935 17.49 20.609 8.449 13.341-9.518 19.65-8.782 17.4-1.862s1.32 7.704 8.7 5.007c7.38-2.696 10.62-11.324 17.099-11.864 6.48-.539 9.858 2.982 11.658 1.364 2.118-2.444-24.923-21.497-63.36-36.75-38.437-15.252-71.02-16.904-79.802-16.904-8.782 0-9.546.222-9.546.222s25.073-3.909 60.71 2.7C101.054 63.036 161 92.207 161 92.207z" fill="#3ef8f4"/></svg>
